core/assets/icons/social.svg

<svg width="24" height="24" viewBox="0 0 24 24" xmlns="http://www.w3.org/2000/svg"><g id="social"><path id="Vector" d="M6.455 19L2 22.5V4C2 3.73478 2.10536 3.48043 2.29289 3.29289C2.48043 3.10536 2.73478 3 3 3H21C21.2652 3 21.5196 3.10536 21.7071 3.29289C21.8946 3.48043 22 3.73478 22 4V18C22 18.2652 21.8946 18.5196 21.7071 18.7071C21.5196 18.8946 21.2652 19 21 19H6.455ZM4 18.385L5.763 17H20V5H4V18.385ZM12.018 14.7L8.659 11.34C8.23704 10.918 7.99999 10.3457 7.99999 9.749C7.99999 9.45352 8.05818 9.16094 8.17126 8.88796C8.28433 8.61497 8.45007 8.36693 8.659 8.158C8.86793 7.94907 9.11597 7.78333 9.38896 7.67026C9.66194 7.55718 9.95452 7.49899 10.25 7.49899C10.8467 7.49899 11.419 7.73604 11.841 8.158L12.018 8.335L12.195 8.158C12.4039 7.94907 12.652 7.78333 12.925 7.67026C13.1979 7.55718 13.4905 7.49899 13.786 7.49899C14.0815 7.49899 14.3741 7.55718 14.647 7.67026C14.92 7.78333 15.1681 7.94907 15.377 8.158C15.5859 8.36693 15.7517 8.61497 15.8647 8.88796C15.9778 9.16094 16.036 9.45352 16.036 9.749C16.036 10.0445 15.9778 10.3371 15.8647 10.61C15.7517 10.883 15.5859 11.1311 15.377 11.34L12.017 14.699L12.018 14.7Z"/></g></svg>

<svg xmlns="http://www.w3.org/2000/svg" width="24" height="24" fill="none"><path fill="#191C22" d="M6.455 19 2 22.5V4a1 1 0 0 1 1-1h18a1 1 0 0 1 1 1v14a1 1 0 0 1-1 1H6.455ZM4 18.385 5.763 17H20V5H4v13.385Zm8.018-3.685-3.359-3.36a2.25 2.25 0 0 1 3.182-3.182l.177.177.177-.177a2.25 2.25 0 1 1 3.182 3.182l-3.36 3.359.001.001Z"/></svg>
